LUT/RWG_Log3G10_to_REC2020_HDR2084_User_with_NO_CONTRAST_and_R_NONE_and_peak_nits_10000_size_33.cube
# RED Digital Cinema Output Transform LUT for IPP2
# LUT Name = RWG_Log3G10_to_REC2020_HDR2084_User_with_NO_CONTRAST_and_R_NONE_and_peak_nits_10000_size_33.cube
# Generated by R3D SDK 7.1.0-3YA21
# Settings used in creation of this LUT are:
# Development Color Space = REC2020
# Output Gamma Curve = HDR2084_User
# Output Tonemap = NO_CONTRAST
# Highlight Rolloff = No rolloff
# HDR2084 Peak Nits = 10000
# Resolution = 33 x 33 x 33
TITLE "RED IPP2 LUT (Simple) to map REDWideGamutRGB/Log3G10 to REC2020/HDR2084_User/NO_CONTRAST/No rolloff"
LUT_3D_SIZE 33
0.000001 0.000001 0.000001
0.000001 0.000001 0.000001
0.000001 0.000001 0.000001
0.000001 0.000001 0.000001
0.122090 0.000001 0.000001
0.165970 0.000001 0.000001
0.200074 0.000001 0.000001
0.230573 0.000419 0.000147
0.259316 0.002718 0.001221
0.287312 0.008281 0.004265
0.315654 0.017418 0.009897
0.347116 0.030897 0.018977
0.381630 0.048782 0.031885
0.415949 0.069414 0.047558
0.451726 0.093839 0.066805
0.489017 0.121641 0.089227
0.527802 0.153379 0.115111
0.568312 0.189407 0.145427
0.610455 0.224460 0.181534
0.653374 0.258600 0.221303
0.698260 0.293863 0.260363
0.744212 0.330213 0.299391
0.790259 0.367298 0.338509
0.837621 0.406397 0.379315
0.884575 0.446293 0.420662
0.932397 0.488185 0.463887
0.979362 0.530653 0.507560
1.026758 0.574888 0.552951
1.063162 0.620052 0.599216
1.063162 0.665235 0.645435
1.063162 0.711666 0.692877
1.063162 0.757696 0.739882
1.063162 0.804581 0.787738
0.000001 0.000001 0.000001
0.000001 0.000001 0.000001
0.000001 0.000001 0.000001
0.031590 0.000001 0.000001
0.127170 0.000001 0.000001
0.169429 0.000001 0.000001
0.202981 0.000317 0.000001
0.233234 0.002647 0.000147
0.261870 0.008573 0.001073
0.289827 0.017797 0.003879
0.318377 0.029806 0.009301
0.350100 0.045304 0.018278
0.384635 0.064269 0.031135
0.419077 0.085319 0.046984
0.455017 0.108936 0.066627
0.492480 0.135723 0.089542
0.531437 0.166562 0.116011
0.572117 0.199516 0.147017
0.614417 0.232122 0.183958
0.657480 0.264847 0.224151
0.702485 0.299238 0.263472
0.748539 0.335063 0.302734
0.794659 0.371852 0.342062
0.842071 0.410790 0.383059
0.889066 0.450615 0.424575
0.936881 0.492494 0.467948
0.983837 0.534974 0.511749
1.031205 0.579247 0.557248
1.063162 0.624447 0.603602
1.063162 0.669658 0.649885
1.063162 0.716110 0.697377
1.063162 0.762147 0.744405
1.063162 0.809037 0.792262
0.000001 0.000001 0.000001
0.000001 0.000001 0.000001
0.000001 0.000001 0.000001
0.054610 0.000001 0.000001
0.131908 0.000001 0.000001
0.172734 0.001540 0.000001
0.205772 0.007773 0.000001
0.235798 0.017481 0.000099
0.264333 0.028830 0.000864
0.292261 0.041054 0.003324
0.321026 0.054440 0.008410
0.353014 0.070281 0.017148
0.387550 0.088481 0.029892
0.422131 0.107681 0.046041
0.458235 0.129241 0.066056
0.495878 0.154135 0.089470
0.535012 0.181924 0.116551
0.575860 0.210629 0.148283
0.618319 0.240644 0.186098
0.661527 0.271748 0.226786
0.706659 0.305085 0.266435
0.752812 0.340242 0.305975
0.799012 0.376617 0.345539
0.846480 0.415327 0.386743
0.893492 0.455025 0.428441
0.941320 0.496850 0.471969
0.988259 0.539324 0.515901
1.035594 0.583605 0.561514
1.063162 0.628832 0.607954
1.063162 0.674072 0.654301
1.063162 0.720538 0.701835
1.063162 0.766584 0.748885
1.063162 0.813464 0.796752
0.000001 0.103640 0.000001
0.000001 0.102428 0.000001
0.000001 0.101171 0.000001
0.068827 0.099889 0.000001
0.136271 0.094557 0.000001
0.175824 0.091738 0.000001
0.208395 0.090743 0.000001
0.238212 0.091391 0.000099
0.266663 0.093719 0.000612
0.294573 0.097819 0.002642
0.323561 0.104076 0.007245
0.355829 0.113356 0.015659
0.390347 0.125492 0.028295
0.425069 0.139687 0.044693
0.461338 0.156523 0.065027
0.499156 0.176061 0.088927
0.538472 0.198167 0.116626
0.579499 0.222899 0.149111
0.622122 0.250176 0.187839
0.665480 0.279429 0.229126
0.710737 0.311492 0.269190
0.756996 0.345807 0.309055
0.803271 0.381653 0.348888
0.850793 0.420014 0.390323
0.897850 0.459524 0.432214
0.945677 0.501248 0.475910
0.992616 0.543676 0.519980
1.039922 0.587951 0.565700
1.063162 0.633187 0.612233
1.063162 0.678431 0.658646
1.063162 0.724906 0.706225
1.063162 0.770955 0.753302
1.063162 0.817829 0.801169
0.000001 0.161600 0.000001
0.000001 0.160902 0.000001
0.000001 0.160167 0.000001
0.049961 0.159393 0.000001
0.140519 0.158646 0.000001
0.178825 0.155629 0.000001
0.210922 0.153854 0.000001
0.240534 0.152994 0.000001
0.268906 0.152969 0.000399
0.296803 0.153818 0.001974
0.325998 0.155800 0.006019
0.358542 0.159513 0.013993
0.393005 0.165289 0.026392
0.427859 0.173196 0.042911
0.464292 0.183996 0.063482
0.502285 0.198072 0.087824
0.541785 0.215548 0.116132
0.582989 0.236545 0.149381
0.625786 0.260946 0.189047
0.669291 0.288099 0.231090
0.714679 0.318626 0.271668
0.761048 0.351878 0.311928
0.807411 0.387019 0.352071
0.854993 0.424912 0.393764
0.902081 0.464142 0.435867
0.949934 0.505697 0.479741
0.996852 0.548043 0.523950
1.044132 0.592272 0.569793
1.063162 0.637493 0.616419
1.063162 0.682738 0.662897
1.063162 0.729212 0.710525
1.063162 0.775253 0.757628
1.063162 0.822114 0.805499
0.000001 0.202009 0.000001
0.000099 0.201433 0.000001
0.001637 0.200821 0.000001
0.041878 0.200160 0.000001
0.134684 0.199488 0.000001
0.181962 0.198864 0.000001
0.213495 0.196306 0.000001
0.242849 0.194643 0.000001
0.271109 0.193700 0.000243
0.298977 0.193415 0.001408
0.328333 0.193907 0.004831
0.361123 0.195544 0.012229
0.395483 0.198577 0.024239
0.430460 0.203303 0.040688
0.467043 0.210471 0.061376
0.505220 0.220656 0.086081
0.544896 0.234301 0.114956
0.586287 0.251783 0.148953
0.629254 0.273187 0.189562
0.672914 0.297975 0.232556
0.718450 0.326676 0.273783
0.764933 0.358596 0.314517
0.811389 0.392820 0.355024
0.859033 0.430092 0.397009
0.906165 0.468917 0.439350
0.954030 0.510219 0.483418
1.000950 0.552409 0.527789
1.048210 0.596563 0.573755
1.063162 0.641740 0.620480
1.063162 0.686965 0.667034
1.063162 0.733428 0.714709
1.063162 0.779460 0.761838
1.063162 0.826299 0.809720
0.000359 0.236908 0.000001
0.001439 0.236386 0.000001
0.007577 0.235825 0.000001
0.046121 0.235219 0.000001
0.130130 0.234584 0.000001
0.177510 0.233951 0.000001
0.215342 0.232211 0.000001
0.245204 0.230924 0.000001
0.273296 0.229243 0.000147
0.301101 0.228177 0.000952
0.330535 0.227731 0.003759
0.363526 0.228116 0.010479
0.397714 0.229488 0.021940
0.432793 0.232205 0.038071
0.469521 0.236873 0.058706
0.507859 0.244112 0.083643
0.547716 0.254530 0.112993
0.589296 0.268742 0.147682
0.632451 0.287087 0.189199
0.676279 0.309269 0.233373
0.721957 0.335824 0.275406
0.768571 0.366106 0.316716
0.815121 0.399161 0.357655
0.862843 0.435592 0.399986
0.910023 0.473862 0.442591
0.957918 0.514800 0.486874
1.004852 0.556771 0.531415
1.052096 0.600785 0.577522
1.063162 0.645887 0.624350
1.063162 0.691067 0.670981
1.063162 0.737509 0.718714
1.063162 0.783516 0.765868
1.063162 0.830338 0.813767
0.003035 0.269692 0.000001
0.006909 0.269195 0.000001
0.018121 0.268664 0.000001
0.054856 0.268091 0.000001
0.127491 0.267480 0.000001
0.174069 0.266851 0.000001
0.212189 0.266217 0.000001
0.247709 0.265610 0.000001
0.275537 0.263192 0.000099
0.303219 0.261422 0.000640
0.332601 0.260216 0.002860
0.365704 0.259666 0.008840
0.399655 0.259864 0.019553
0.434800 0.261138 0.035118
0.471644 0.263937 0.055487
0.510136 0.268840 0.080468
0.550172 0.276509 0.110144
0.591944 0.287682 0.145409
0.635282 0.302950 0.187745
0.679287 0.322300 0.233347
0.725132 0.346374 0.276386
0.771883 0.374662 0.318404
0.818550 0.406216 0.359860
0.866368 0.441548 0.402600
0.913614 0.479068 0.445518
0.961546 0.519490 0.490048
1.008485 0.561134 0.534781
1.055739 0.604940 0.581039
1.063162 0.649916 0.627982
1.063162 0.695023 0.674703
1.063162 0.741416 0.722495
1.063162 0.787396 0.769691
1.063162 0.834188 0.817602
0.010700 0.301484 0.000243
0.017927 0.301004 0.000243
0.032753 0.300491 0.000243
0.066770 0.299940 0.000243
0.127691 0.299352 0.000243
0.172093 0.298730 0.000243
0.209103 0.298082 0.000243
0.243854 0.297419 0.000243
0.277911 0.296771 0.000243
0.305371 0.294295 0.000437
0.334513 0.292392 0.002194
0.367514 0.291063 0.007417
0.401207 0.290367 0.017185
0.436358 0.290521 0.031969
0.473280 0.291864 0.051823
0.511902 0.294884 0.076601
0.552108 0.300212 0.106378
0.594063 0.308626 0.142018
0.637595 0.320879 0.184999
0.681791 0.337251 0.232229
0.727816 0.358537 0.276509
0.774726 0.384449 0.319388
0.821529 0.414138 0.361472
0.869453 0.448044 0.404691
0.916783 0.484562 0.447976
0.964780 0.524278 0.492798
1.011760 0.565462 0.537753
1.059007 0.608967 0.584185
1.063162 0.653757 0.631265
1.063162 0.698744 0.678079
1.063162 0.745069 0.725947
1.063162 0.791001 0.773190
1.063162 0.837759 0.821134
0.024670 0.333002 0.001063
0.034718 0.332528 0.001063
0.051231 0.332031 0.001053
0.081672 0.331499 0.001044
0.131587 0.330930 0.001024
0.172152 0.330321 0.001003
0.207304 0.329673 0.000983
0.240870 0.328984 0.000972
0.274068 0.328272 0.000983
0.307652 0.327565 0.001044
0.335792 0.324990 0.001701
0.368910 0.322976 0.006209
0.402290 0.321525 0.014973
0.437347 0.320761 0.028789
0.474285 0.320923 0.047860
0.512997 0.322397 0.072133
0.553352 0.325736 0.101706
0.595481 0.331679 0.137428
0.639215 0.341052 0.180767
0.683613 0.354375 0.229711
0.729835 0.372605 0.275516
0.776932 0.395750 0.319438
0.823893 0.423155 0.362280
0.871954 0.455250 0.406084
0.919388 0.490436 0.449811
0.967482 0.529196 0.494976
1.014511 0.569742 0.540193
1.061825 0.612821 0.586830
1.063162 0.657334 0.634064
1.063162 0.702160 0.680999
1.063162 0.748376 0.728957
1.063162 0.794247 0.776262
1.063162 0.840965 0.824239
0.045608 0.364771 0.003197
0.057108 0.364305 0.003193
0.073156 0.363825 0.003184
0.099792 0.363315 0.003162
0.139691 0.362765 0.003131
0.174919 0.362175 0.003081
0.207302 0.361543 0.003035
0.239111 0.360862 0.003002
0.271082 0.360140 0.002997
0.303751 0.359393 0.003067
0.337571 0.358639 0.003276
0.367501 0.355975 0.004872
0.402806 0.353820 0.013058
0.437624 0.352265 0.025767
0.474467 0.351438 0.043790
0.513206 0.351622 0.067214
0.553663 0.353270 0.096199
0.595962 0.357026 0.131598
0.639896 0.363704 0.174872
0.684504 0.373987 0.225374
0.730951 0.388955 0.273049
0.778266 0.408949 0.318234
0.825424 0.433612 0.361999
0.873667 0.463407 0.406519
0.921249 0.496854 0.450777
0.969467 0.534325 0.496367
1.016601 0.573983 0.541903
1.063162 0.616457 0.588788
1.063162 0.660575 0.636220
1.063162 0.705163 0.683296
1.063162 0.751227 0.731365
1.063162 0.797019 0.778755
1.063162 0.843682 0.826802
0.072328 0.396766 0.007458
0.083771 0.396315 0.007444
0.098421 0.395850 0.007424
0.121415 0.395355 0.007384
0.151939 0.394833 0.007321
0.181004 0.394261 0.007239
0.209747 0.393654 0.007144
0.239121 0.392992 0.007053
0.269370 0.392278 0.006997
0.300767 0.391524 0.007030
0.333615 0.390729 0.007239
0.367624 0.389933 0.007764
0.398443 0.387135 0.010492
0.436296 0.384849 0.022885
0.473415 0.383183 0.039843
0.512281 0.382295 0.062186
0.552760 0.382531 0.090137
0.595174 0.384407 0.124694
0.639288 0.388659 0.167329
0.684123 0.396042 0.218765
0.730820 0.407686 0.268700
0.778384 0.424242 0.315386
0.825790 0.445712 0.360248
0.874264 0.472697 0.405629
0.922051 0.503914 0.450550
0.970443 0.539677 0.496656
1.017729 0.578132 0.542583
1.063162 0.619762 0.589778
1.063162 0.663333 0.637445
1.063162 0.707573 0.684711
1.063162 0.753434 0.732927
1.063162 0.799098 0.780438
1.063162 0.845695 0.828572
0.104155 0.429657 0.014546
0.114861 0.429211 0.014514
0.127804 0.428762 0.014476
0.146712 0.428280 0.014409
0.168030 0.427774 0.014313
0.190869 0.427225 0.014183
0.215281 0.426639 0.014026
0.241502 0.426001 0.013859
0.269417 0.425314 0.013714
0.299055 0.424565 0.013653
0.330558 0.423759 0.013776
0.363533 0.422926 0.014239
0.398428 0.422059 0.015331
0.430403 0.419145 0.019471
0.471393 0.416697 0.036607
0.510586 0.414908 0.057789
0.551320 0.413979 0.084544
0.593871 0.414284 0.117870
0.638093 0.416441 0.159291
0.683035 0.421161 0.210417
0.729880 0.429553 0.262801
0.777654 0.442497 0.311098
0.825276 0.460360 0.357172
0.873980 0.483967 0.403540
0.921991 0.512370 0.449228
0.970589 0.545875 0.495953
1.018054 0.582678 0.542352
1.063162 0.623129 0.589918
1.063162 0.665904 0.637873
1.063162 0.709634 0.685358
1.063162 0.755174 0.733754
1.063162 0.800655 0.781402
1.063162 0.847150 0.829650
0.140632 0.463106 0.024874
0.150318 0.462669 0.024814
0.160245 0.462226 0.024748
0.172409 0.461756 0.024652
0.187093 0.461266 0.024517
0.204402 0.460741 0.024338
0.224286 0.460175 0.024117
0.246835 0.459559 0.023865
0.271824 0.458895 0.023613
0.299157 0.458168 0.023419
0.328849 0.457377 0.023385
0.360431 0.456527 0.023676
0.394231 0.455620 0.024565
0.429692 0.454704 0.026491
0.463124 0.451642 0.032337
0.507406 0.449030 0.054332
0.548637 0.447135 0.079731
0.591477 0.446151 0.111481
0.635922 0.446560 0.151202
0.681070 0.448994 0.200686
0.728132 0.454419 0.255533
0.776119 0.463843 0.305492
0.823971 0.477933 0.352839
0.872919 0.497736 0.400269
0.921171 0.522757 0.446842
0.970005 0.553417 0.494295
1.017691 0.588059 0.541261
1.063162 0.626905 0.589287
1.063162 0.668580 0.637592
1.063162 0.711592 0.685355
1.063162 0.756671 0.733972
1.063162 0.801875 0.781797
1.063162 0.848216 0.830189
0.178724 0.497274 0.038832
0.184638 0.496845 0.038736
0.190639 0.496402 0.038635
0.198453 0.495941 0.038501
0.208579 0.495462 0.038325
0.221343 0.494952 0.038099
0.236934 0.494406 0.037819
0.255573 0.493817 0.037488
0.277168 0.493176 0.037128
0.301645 0.492480 0.036790
0.328997 0.491708 0.036564
0.358716 0.490876 0.036607
0.391043 0.489964 0.037177
0.425364 0.489001 0.038672
0.461579 0.488009 0.041749
0.496473 0.484812 0.049500
0.544168 0.482022 0.076315
0.587717 0.479989 0.106305
0.632567 0.478968 0.143873
0.678015 0.479484 0.190936
0.725331 0.482312 0.246987
0.773580 0.488454 0.298492
0.821699 0.498780 0.347099
0.870932 0.514512 0.395669
0.919478 0.535651 0.443216
0.968593 0.562826 0.491512
1.016535 0.594684 0.539161
1.063162 0.631396 0.587736
1.063162 0.671549 0.636478
1.063162 0.713546 0.684575
1.063162 0.757957 0.733463
1.063162 0.802748 0.781494
1.063162 0.848852 0.830072
0.212211 0.532062 0.056700
0.215969 0.531631 0.056559
0.219822 0.531191 0.056414
0.224981 0.530740 0.056238
0.231968 0.530266 0.056020
0.241208 0.529771 0.055748
0.253054 0.529247 0.055416
0.267909 0.528678 0.055018
0.285895 0.528064 0.054566
0.307096 0.527394 0.054095
0.331585 0.526658 0.053678
0.358928 0.525847 0.053453
0.389307 0.524956 0.053645
0.422097 0.523992 0.054615
0.457121 0.522958 0.056929
0.494010 0.521888 0.061478
0.530341 0.518546 0.071342
0.581903 0.515544 0.103214
0.627706 0.513382 0.138377
0.673690 0.512346 0.182468
0.721412 0.513009 0.237922
0.769992 0.516268 0.290495
0.818427 0.523052 0.340114
0.867989 0.534667 0.389735
0.916848 0.551583 0.438285
0.966296 0.574711 0.487517
1.014559 0.603137 0.535963
1.062953 0.637080 0.585206
1.063162 0.675181 0.634481
1.063162 0.715762 0.682990
1.063162 0.759212 0.732211
1.063162 0.803414 0.780515
1.063162 0.849155 0.829310
0.243615 0.567360 0.078772
0.246095 0.566928 0.078578
0.248634 0.566491 0.078381
0.252076 0.566043 0.078157
0.256895 0.565577 0.077893
0.263493 0.565093 0.077575
0.272280 0.564582 0.077195
0.283748 0.564032 0.076741
0.298207 0.563442 0.076217
0.315936 0.562805 0.075638
0.337169 0.562102 0.075056
0.361636 0.561328 0.074582
0.389557 0.560468 0.074400
0.420340 0.559524 0.074824
0.453772 0.558492 0.076344
0.489432 0.557393 0.079707
0.526900 0.556241 0.086066
0.565047 0.552731 0.098563
0.620530 0.549506 0.135856
0.667728 0.547241 0.176647
0.716171 0.546169 0.229616
0.765262 0.547024 0.282225
0.814108 0.550683 0.332285
0.864055 0.558397 0.382644
0.913292 0.570992 0.432099
0.963121 0.589658 0.482280
1.011741 0.614030 0.531614
1.060500 0.644512 0.581636
1.063162 0.679926 0.631563
1.063162 0.718595 0.680582
1.063162 0.760700 0.730217
1.063162 0.804043 0.778839
1.063162 0.849243 0.827905
0.274395 0.603337 0.105689
0.276042 0.602906 0.105433
0.277719 0.602470 0.105175
0.280010 0.602026 0.104895
0.283305 0.601565 0.104576
0.287953 0.601090 0.104208
0.294332 0.600592 0.103780
0.302936 0.600061 0.103275
0.314180 0.599494 0.102690
0.328480 0.598887 0.102029
0.346247 0.598216 0.101316
0.367445 0.597487 0.100632
0.392390 0.596665 0.100116
0.420630 0.595759 0.100033
0.451975 0.594760 0.100789
0.485979 0.593661 0.103022
0.522175 0.592485 0.107684
0.560436 0.591250 0.116321
0.600396 0.587556 0.132000
0.659066 0.584138 0.174954
0.709091 0.581691 0.223900
0.759094 0.580619 0.274770
0.808572 0.581650 0.324259
0.859041 0.585871 0.374757
0.908727 0.594301 0.424789
0.959004 0.608305 0.475806
1.008049 0.628113 0.526042
1.057208 0.654418 0.576943
1.063162 0.686414 0.627635
1.063162 0.722519 0.677282
1.063162 0.762776 0.727428
1.063162 0.804889 0.776456
1.063162 0.849295 0.825844
0.305151 0.639905 0.138281
0.306229 0.639472 0.137953
0.307322 0.639040 0.137622
0.308816 0.638590 0.137269
0.311043 0.638144 0.136885
0.314266 0.637671 0.136456
0.318810 0.637186 0.135970
0.325110 0.636668 0.135411
0.333599 0.636123 0.134768
0.344756 0.635540 0.134034
0.359105 0.634907 0.133215
0.376836 0.634211 0.132365
0.398416 0.633438 0.131575
0.423608 0.632579 0.131050
0.452318 0.631623 0.131126
0.484150 0.630558 0.132335
0.518634 0.629403 0.135478
0.555562 0.628142 0.141827
0.594524 0.626811 0.153357
0.635354 0.622997 0.172488
0.698969 0.619255 0.223017
0.750922 0.616669 0.269727
0.801520 0.615600 0.317104
0.852762 0.616877 0.366722
0.903066 0.621552 0.416714
0.953882 0.631011 0.468241
1.003436 0.645988 0.519269
1.053075 0.667529 0.571075
1.063162 0.695338 0.622629
1.063162 0.728132 0.673022
1.063162 0.765890 0.723799
1.063162 0.806289 0.773325
1.063162 0.849543 0.823117
0.335722 0.676368 0.177250
0.336405 0.675940 0.176831
0.337094 0.675503 0.176407
0.338044 0.675066 0.175969
0.339521 0.674613 0.175499
0.341727 0.674148 0.174988
0.344921 0.673671 0.174429
0.349463 0.673168 0.173798
0.355738 0.672644 0.173087
0.364222 0.672088 0.172277
0.375478 0.671479 0.171364
0.389844 0.670823 0.170374
0.407934 0.670098 0.169359
0.429745 0.669285 0.168474
0.455362 0.668381 0.167975
0.484518 0.667375 0.168305
0.516794 0.666257 0.170140
0.551970 0.665021 0.174545
0.589583 0.663678 0.183158
0.628543 0.662265 0.198254
0.672123 0.658198 0.221371
0.739582 0.654189 0.268852
0.792426 0.651521 0.312288
0.845019 0.650475 0.359648
0.896216 0.652014 0.408667
0.947752 0.657396 0.460083
0.997901 0.667681 0.511567
1.048111 0.684191 0.564155
1.063162 0.707230 0.616600
1.063162 0.735997 0.667829
1.063162 0.770541 0.719338
1.063162 0.808633 0.769466
1.063162 0.850280 0.819754
0.367262 0.713796 0.225191
0.367654 0.713368 0.224704
0.368049 0.712937 0.224213
0.368607 0.712493 0.223709
0.369543 0.712046 0.223176
0.371007 0.711586 0.222609
0.373189 0.711119 0.222001
0.376376 0.710629 0.221327
0.380886 0.710113 0.220578
0.387146 0.709584 0.219736
0.395682 0.709001 0.218778
0.406909 0.708386 0.217715
0.421504 0.707697 0.216555
0.439715 0.706939 0.215396
0.461813 0.706095 0.214426
0.487741 0.705146 0.213994
0.517216 0.704092 0.214645
0.550063 0.702910 0.217184
0.585829 0.701597 0.222633
0.623400 0.700187 0.231897
0.663490 0.698652 0.246183
0.708871 0.694390 0.266356
0.779423 0.690119 0.311138
0.834785 0.687257 0.354569
0.887574 0.686242 0.401296
0.940187 0.688088 0.451668
0.991166 0.693981 0.503031
1.042084 0.705383 0.556099
1.063162 0.723144 0.609350
1.063162 0.747107 0.661465
1.063162 0.777555 0.713840
1.063162 0.812548 0.764703
1.063162 0.851955 0.815598
0.399382 0.751503 0.270891
0.399564 0.751078 0.270441
0.399748 0.750646 0.269985
0.400033 0.750203 0.269523
0.400581 0.749761 0.269043
0.401508 0.749305 0.268543
0.402954 0.748839 0.268013
0.405136 0.748359 0.267446
0.408306 0.747865 0.266831
0.412812 0.747343 0.266153
0.419115 0.746793 0.265399
0.427621 0.746205 0.264561
0.439016 0.745561 0.263632
0.453695 0.744855 0.262644
0.472103 0.744068 0.261681
0.494427 0.743184 0.260903
0.520584 0.742196 0.260602
0.550542 0.741084 0.261244
0.583900 0.739837 0.263511
0.619589 0.738470 0.268190
0.658216 0.736945 0.276430
0.698731 0.735306 0.289150
0.744739 0.730917 0.307567
0.820361 0.726235 0.352922
0.876340 0.723260 0.395914
0.930820 0.722267 0.443978
0.983033 0.724393 0.494333
1.034894 0.731020 0.547303
1.063162 0.743429 0.601070
1.063162 0.762082 0.654001
1.063162 0.787645 0.707290
1.063162 0.818697 0.758997
1.063162 0.855082 0.810644
0.431611 0.788797 0.312530
0.431640 0.788366 0.312095
0.431672 0.787935 0.311653
0.431761 0.787500 0.311207
0.432046 0.787062 0.310749
0.432586 0.786610 0.310278
0.433509 0.786150 0.309786
0.434961 0.785680 0.309269
0.437146 0.785195 0.308718
0.440334 0.784688 0.308129
0.444890 0.784163 0.307479
0.451197 0.783605 0.306768
0.459865 0.782995 0.305980
0.471355 0.782335 0.305122
0.486224 0.781598 0.304224
0.504847 0.780784 0.303364
0.527377 0.779864 0.302698
0.553965 0.778832 0.302491
0.584387 0.777665 0.303174
0.617676 0.776365 0.305320
0.654372 0.774898 0.309800
0.693417 0.773285 0.317547
0.733629 0.771559 0.329303
0.782556 0.766876 0.347889
0.860778 0.761917 0.393678
0.918912 0.758772 0.438179
0.973166 0.757889 0.486394
1.026401 0.760452 0.538428
1.063162 0.767875 0.592174
1.063162 0.781137 0.645658
1.063162 0.801312 0.699794
1.063162 0.827675 0.752404
1.063162 0.860251 0.804896
0.464973 0.826759 0.353266
0.464887 0.826330 0.352836
0.464804 0.825898 0.352403
0.464753 0.825467 0.351962
0.464837 0.825027 0.351516
0.465101 0.824584 0.351056
0.465638 0.824134 0.350585
0.466556 0.823664 0.350096
0.468002 0.823195 0.349585
0.470181 0.822703 0.349041
0.473381 0.822195 0.348458
0.477915 0.821657 0.347831
0.484306 0.821084 0.347137
0.492999 0.820461 0.346381
0.504574 0.819785 0.345569
0.519535 0.819025 0.344727
0.538242 0.818188 0.343936
0.561052 0.817232 0.343340
0.587970 0.816147 0.343198
0.618231 0.814941 0.343897
0.652380 0.813560 0.346031
0.689415 0.812012 0.350365
0.728132 0.810327 0.357657
0.766273 0.805405 0.366230
0.818577 0.803657 0.387058
0.901835 0.798210 0.435079
0.960191 0.794963 0.479939
1.015818 0.794146 0.529921
1.063162 0.797131 0.582838
1.063162 0.805143 0.636394
1.063162 0.819592 0.691159
1.063162 0.840533 0.744654
1.063162 0.868345 0.798090
0.498397 0.864104 0.392644
0.498234 0.863676 0.392221
0.498064 0.863258 0.391782
0.497915 0.862831 0.391345
0.497856 0.862392 0.390902
0.497927 0.861950 0.390454
0.498189 0.861508 0.389990
0.498728 0.861050 0.389518
0.499642 0.860583 0.389023
0.501094 0.860114 0.388513
0.503291 0.859607 0.387970
0.506491 0.859089 0.387395
0.511102 0.858552 0.386773
0.517527 0.857966 0.386091
0.526306 0.857328 0.385355
0.537987 0.856634 0.384569
0.553037 0.855855 0.383769
0.571995 0.854981 0.383027
0.595098 0.853996 0.382486
0.621878 0.852874 0.382408
0.652936 0.851594 0.383163
0.687410 0.850144 0.385329
0.724137 0.848544 0.389542
0.763686 0.846740 0.396805
0.804267 0.844792 0.407777
0.856662 0.839655 0.426607
0.942144 0.833881 0.476037
1.002315 0.830479 0.522906
1.058181 0.829849 0.573999
1.063162 0.833265 0.626905
1.063162 0.842233 0.681849
1.063162 0.857505 0.736025
1.063162 0.879904 0.790382
0.532912 0.901945 0.432337
0.532680 0.901533 0.431910
0.532448 0.901105 0.431478
0.532226 0.900677 0.431039
0.532057 0.900249 0.430591
0.531994 0.899808 0.430147
0.532057 0.899372 0.429688
0.532312 0.898915 0.429223
0.532844 0.898467 0.428744
0.533748 0.897998 0.428254
0.535197 0.897512 0.427735
0.537379 0.897027 0.427197
0.540606 0.896499 0.426623
0.545213 0.895942 0.425999
0.551669 0.895352 0.425332
0.560465 0.894699 0.424607
0.572150 0.893996 0.423851
0.587317 0.893193 0.423073
0.606427 0.892286 0.422368
0.629319 0.891266 0.421878
0.656704 0.890088 0.421838
0.687971 0.888757 0.422643
0.722090 0.887265 0.424777
0.759549 0.885558 0.429007
0.798579 0.883689 0.436020
0.839845 0.881603 0.446929
0.892492 0.876316 0.465512
0.982867 0.869990 0.517924
1.043808 0.866466 0.566161
1.063162 0.865989 0.617469
1.063162 0.869916 0.671917
1.063162 0.879506 0.726389
1.063162 0.895976 0.781539
0.567366 0.939012 0.471308
0.567094 0.938592 0.470875
0.566810 0.938173 0.470442
0.566536 0.937745 0.470002
0.566303 0.937317 0.469559
0.566132 0.936890 0.469113
0.566059 0.936449 0.468659
0.566118 0.936005 0.468199
0.566370 0.935560 0.467726
0.566893 0.935102 0.467245
