LUT/RWG_Log3G10_to_REC2020_HDR2084_User_with_NO_CONTRAST_and_R_NONE_and_peak_nits_10000_size_33.cube
# RED Digital Cinema Output Transform LUT for IPP2
# LUT Name = RWG_Log3G10_to_REC2020_HDR2084_User_with_NO_CONTRAST_and_R_NONE_and_peak_nits_10000_size_33.cube
# Generated by R3D SDK 7.1.0-3YA21
# Settings used in creation of this LUT are:
# Development Color Space = REC2020
# Output Gamma Curve = HDR2084_User
# Output Tonemap = NO_CONTRAST
# Highlight Rolloff = No rolloff
# HDR2084 Peak Nits = 10000
# Resolution = 33 x 33 x 33
TITLE "RED IPP2 LUT (Simple) to map REDWideGamutRGB/Log3G10 to REC2020/HDR2084_User/NO_CONTRAST/No rolloff"
LUT_3D_SIZE 5
0.000001 0.000001 0.000001
0.259316 0.002718 0.001221
0.527802 0.153379 0.115111
0.884575 0.446293 0.420662
1.063162 0.804581 0.787738
0.010700 0.301484 0.000243
0.277911 0.296771 0.000243
0.552108 0.300212 0.106378
0.916783 0.484562 0.447976
1.063162 0.837759 0.821134
0.243615 0.567360 0.078772
0.298207 0.563442 0.076217
0.526900 0.556241 0.086066
0.913292 0.570992 0.432099
1.063162 0.849243 0.827905
0.498397 0.864104 0.392644
0.499642 0.860583 0.389023
0.553037 0.855855 0.383769
0.804267 0.844792 0.407777
1.063162 0.879904 0.790382
0.782460 1.063162 0.707777
0.779456 1.063162 0.704231
0.780155 1.063162 0.700419
0.833072 1.063162 0.695562
1.063162 1.063162 0.719437
0.001024 0.000001 0.276628
0.251570 0.000099 0.278072
0.524407 0.111575 0.271142
0.883701 0.443342 0.433015
1.063162 0.804714 0.788440
0.000795 0.268572 0.273648
0.269082 0.269082 0.269082
0.546992 0.280859 0.262353
0.914220 0.480695 0.456813
1.063162 0.836363 0.820160
0.235098 0.558759 0.181976
0.294928 0.559980 0.175752
0.526488 0.552320 0.201166
0.910901 0.569181 0.440302
1.063162 0.848056 0.827031
0.494891 0.859919 0.396002
0.500673 0.861560 0.397264
0.553705 0.856690 0.393302
0.805484 0.845552 0.416570
1.063162 0.879630 0.789541
0.779081 1.063162 0.704468
0.780983 1.063162 0.706232
0.781598 1.063162 0.702449
0.834215 1.063162 0.697630
1.063162 1.063162 0.718283
0.028504 0.003409 0.525215
0.198177 0.003430 0.529726
0.478952 0.009383 0.524864
0.853967 0.394204 0.517194
1.063162 0.782933 0.773369
0.026861 0.086322 0.541559
0.200576 0.081628 0.540265
0.498601 0.110644 0.536995
0.882213 0.434835 0.533326
1.063162 0.813544 0.802888
0.153335 0.514195 0.522106
0.256176 0.515058 0.521938
0.514829 0.514829 0.514829
0.874601 0.540536 0.524248
1.063162 0.822970 0.806647
0.486205 0.846963 0.477754
0.492571 0.848688 0.477425
0.550448 0.849411 0.475175
0.804051 0.837956 0.495276
1.063162 0.866417 0.769132
0.775329 1.063162 0.706165
0.777221 1.063162 0.707677
0.782737 1.063162 0.709004
0.835013 1.063162 0.705243
1.063162 1.063162 0.728631
0.021712 0.001735 0.837601
0.061223 0.001533 0.845230
0.440214 0.001798 0.842456
0.734273 0.062322 0.807731
1.063162 0.717982 0.798782
0.014778 0.007652 0.867238
0.049618 0.006881 0.867091
0.449053 0.008312 0.862742
0.757964 0.103953 0.830870
1.063162 0.748154 0.821591
0.018693 0.378477 0.849928
0.054308 0.373912 0.849791
0.449691 0.367886 0.841488
0.775841 0.413073 0.830338
1.063162 0.756992 0.831026
0.434554 0.788600 0.799637
0.442701 0.789976 0.800874
0.518231 0.790378 0.799441
0.789098 0.789094 0.789094
1.063162 0.824557 0.811309
0.766638 1.063162 0.774255
0.768589 1.063162 0.774715
0.774653 1.063162 0.774953
0.831794 1.063162 0.773420
1.063162 1.063162 0.794229
0.000001 0.000001 1.063162
0.000001 0.000001 1.063162
0.029657 0.000001 1.063162
0.740986 0.000001 1.063162
0.999342 0.277535 1.063162
0.000001 0.000001 1.063162
0.000001 0.000001 1.063162
0.010016 0.000001 1.063162
0.766276 0.000001 1.063162
1.023262 0.329598 1.063162
0.000001 0.000001 1.063162
0.000001 0.000001 1.063162
0.000552 0.000001 1.063162
0.750816 0.000099 1.063162
1.044671 0.438814 1.063162
0.000001 0.689002 1.063162
0.000001 0.687400 1.063162
0.016562 0.673474 1.063162
0.723273 0.663173 1.063162
1.055501 0.708325 1.063162
0.722819 1.063162 1.063162
0.724770 1.063162 1.063162
0.732256 1.063162 1.063162
0.803858 1.063162 1.063162
1.063162 1.063162 1.063162
