LUT/RWG_Log3G10_to_REC2020_HDR2084_User_with_NO_CONTRAST_and_R_NONE_and_peak_nits_10000_size_33.cube
# RED Digital Cinema Output Transform LUT for IPP2
# LUT Name = RWG_Log3G10_to_REC2020_HDR2084_User_with_NO_CONTRAST_and_R_NONE_and_peak_nits_10000_size_33.cube
# Generated by R3D SDK 7.1.0-3YA21
# Settings used in creation of this LUT are:
# Development Color Space = REC2020
# Output Gamma Curve = HDR2084_User
# Output Tonemap = NO_CONTRAST
# Highlight Rolloff = No rolloff
# HDR2084 Peak Nits = 10000
# Resolution = 33 x 33 x 33
TITLE "RED IPP2 LUT (Simple) to map REDWideGamutRGB/Log3G10 to REC2020/HDR2084_User/NO_CONTRAST/No rolloff"
LUT_3D_SIZE 9
0.000001 0.000001 0.000001
0.122090 0.000001 0.000001
0.259316 0.002718 0.001221
0.381630 0.048782 0.031885
0.527802 0.153379 0.115111
0.698260 0.293863 0.260363
0.884575 0.446293 0.420662
1.063162 0.620052 0.599216
1.063162 0.804581 0.787738
0.000001 0.161600 0.000001
0.140519 0.158646 0.000001
0.268906 0.152969 0.000399
0.393005 0.165289 0.026392
0.541785 0.215548 0.116132
0.714679 0.318626 0.271668
0.902081 0.464142 0.435867
1.063162 0.637493 0.616419
1.063162 0.822114 0.805499
0.010700 0.301484 0.000243
0.127691 0.299352 0.000243
0.277911 0.296771 0.000243
0.401207 0.290367 0.017185
0.552108 0.300212 0.106378
0.727816 0.358537 0.276509
0.916783 0.484562 0.447976
1.063162 0.653757 0.631265
1.063162 0.837759 0.821134
0.104155 0.429657 0.014546
0.168030 0.427774 0.014313
0.269417 0.425314 0.013714
0.398428 0.422059 0.015331
0.551320 0.413979 0.084544
0.729880 0.429553 0.262801
0.921991 0.512370 0.449228
1.063162 0.665904 0.637873
1.063162 0.847150 0.829650
0.243615 0.567360 0.078772
0.256895 0.565577 0.077893
0.298207 0.563442 0.076217
0.389557 0.560468 0.074400
0.526900 0.556241 0.086066
0.716171 0.546169 0.229616
0.913292 0.570992 0.432099
1.063162 0.679926 0.631563
1.063162 0.849243 0.827905
0.367262 0.713796 0.225191
0.369543 0.712046 0.223176
0.380886 0.710113 0.220578
0.421504 0.707697 0.216555
0.517216 0.704092 0.214645
0.663490 0.698652 0.246183
0.887574 0.686242 0.401296
1.063162 0.723144 0.609350
1.063162 0.851955 0.815598
0.498397 0.864104 0.392644
0.497856 0.862392 0.390902
0.499642 0.860583 0.389023
0.511102 0.858552 0.386773
0.553037 0.855855 0.383769
0.652936 0.851594 0.383163
0.804267 0.844792 0.407777
1.058181 0.829849 0.573999
1.063162 0.879904 0.790382
0.638581 1.013406 0.550534
0.637240 1.011760 0.548777
0.636421 1.010050 0.546956
0.638111 1.008248 0.545014
0.649551 1.006166 0.542761
0.691877 1.003248 0.539981
0.792979 0.998324 0.539958
0.945001 0.990077 0.563850
1.063162 0.972594 0.750756
0.782460 1.063162 0.707777
0.780909 1.063162 0.706025
0.779456 1.063162 0.704231
0.778575 1.063162 0.702376
0.780155 1.063162 0.700419
0.791355 1.063162 0.698190
0.833072 1.063162 0.695562
0.933042 1.063162 0.695995
1.063162 1.063162 0.719437
0.000001 0.000001 0.139068
0.112126 0.000001 0.140711
0.257506 0.000473 0.132897
0.380868 0.034517 0.131634
0.527684 0.141629 0.171488
0.698678 0.291616 0.276227
0.885321 0.446411 0.424514
1.063162 0.620821 0.600729
1.063162 0.805553 0.788856
0.000001 0.129559 0.134972
0.130616 0.130616 0.130616
0.266585 0.124504 0.111054
0.391669 0.143659 0.112015
0.541038 0.206509 0.169332
0.714406 0.316160 0.285796
0.902094 0.463676 0.438795
1.063162 0.637580 0.617168
1.063162 0.822377 0.805887
0.006290 0.292478 0.029934
0.117014 0.292890 0.025436
0.275831 0.289772 0.031590
0.400005 0.283787 0.069778
0.551437 0.295657 0.149096
0.727590 0.356708 0.289038
0.916839 0.484199 0.450533
1.063162 0.653883 0.631964
1.063162 0.838055 0.821533
0.097799 0.425061 0.039128
0.164027 0.425629 0.037574
0.267753 0.422964 0.038555
0.398011 0.419637 0.043069
0.550803 0.411885 0.115078
0.729676 0.428412 0.275136
0.922060 0.512101 0.451606
1.063162 0.666058 0.638548
1.063162 0.847466 0.830072
0.241110 0.564513 0.095647
0.256296 0.565253 0.095196
0.297636 0.563029 0.094599
0.389307 0.559967 0.093640
0.527182 0.555736 0.107246
0.716104 0.545789 0.242798
0.913373 0.570913 0.434476
1.063162 0.680090 0.632232
1.063162 0.849559 0.828326
0.365537 0.711623 0.232135
0.369900 0.712453 0.232717
0.381147 0.710488 0.230819
0.421678 0.708025 0.227652
0.517473 0.704381 0.226266
0.664057 0.698942 0.255247
0.887724 0.686504 0.403774
1.063162 0.723386 0.610025
1.063162 0.852256 0.816017
0.496755 0.862210 0.392390
0.498504 0.863067 0.393222
0.500256 0.861236 0.391425
0.511635 0.859187 0.389277
0.553470 0.856476 0.386385
0.653398 0.852192 0.385821
0.804942 0.845385 0.410146
1.058430 0.830322 0.574769
1.063162 0.880264 0.790792
0.636905 1.011646 0.549058
0.637987 1.012502 0.549958
0.637158 1.010791 0.548146
0.638811 1.008968 0.546216
0.650186 1.006875 0.543983
0.692416 1.003946 0.541220
0.793521 0.999023 0.541182
0.945686 0.990747 0.565015
1.063162 0.973125 0.751220
0.780784 1.063162 0.706042
0.781686 1.063162 0.706953
0.780228 1.063162 0.705156
0.779328 1.063162 0.703301
0.780883 1.063162 0.701339
0.792019 1.063162 0.699104
0.833653 1.063162 0.696475
0.933613 1.063162 0.696896
1.063162 1.063162 0.720324
0.001024 0.000001 0.276628
0.068940 0.000001 0.278318
0.251570 0.000099 0.278072
0.376936 0.012579 0.272016
0.524407 0.111575 0.271142
0.696288 0.281721 0.314165
0.883701 0.443342 0.433015
1.063162 0.619454 0.601690
1.063162 0.804714 0.788440
0.000875 0.024588 0.281247
0.078478 0.022921 0.280255
0.260471 0.026719 0.279730
0.387419 0.080964 0.270154
0.537529 0.178209 0.271224
0.711868 0.307508 0.321361
0.900376 0.460717 0.446327
1.063162 0.636168 0.617837
1.063162 0.821483 0.805363
0.000795 0.268572 0.273648
0.078584 0.268803 0.272490
0.269082 0.269082 0.269082
0.394929 0.264495 0.257376
0.546992 0.280859 0.262353
0.724113 0.349072 0.323631
0.914220 0.480695 0.456813
1.063162 0.651700 0.631671
1.063162 0.836363 0.820160
0.079124 0.413987 0.219326
0.149684 0.414564 0.216846
0.262114 0.414731 0.212036
0.395462 0.410960 0.221782
0.546840 0.404376 0.231213
0.726269 0.423457 0.309672
0.919513 0.509238 0.457336
1.063162 0.664041 0.638165
1.063162 0.845867 0.828740
0.235098 0.558759 0.181976
0.251444 0.559516 0.179803
0.294928 0.559980 0.175752
0.387585 0.556615 0.182068
0.526488 0.552320 0.201166
0.713344 0.543262 0.279594
0.910901 0.569181 0.440302
1.063162 0.678415 0.631847
1.063162 0.848056 0.827031
0.362959 0.708325 0.259152
0.367487 0.709165 0.259160
0.380707 0.709852 0.258725
0.421187 0.707246 0.258342
0.517208 0.703481 0.258920
0.664242 0.698052 0.282256
0.885679 0.686009 0.410199
1.063162 0.722543 0.609722
1.063162 0.850989 0.814745
0.494891 0.859919 0.396002
0.496664 0.860778 0.396685
0.500673 0.861560 0.397264
0.511963 0.859454 0.395635
0.553705 0.856690 0.393302
0.653689 0.852348 0.393079
0.805484 0.845552 0.416570
1.056841 0.830506 0.575016
1.063162 0.879630 0.789541
0.635168 1.009775 0.548383
0.636250 1.010620 0.549238
0.637851 1.011427 0.550047
0.639460 1.009585 0.548227
0.650770 1.007462 0.546105
0.692900 1.004512 0.543455
0.794012 0.999563 0.543481
0.946336 0.991287 0.567127
1.063162 0.973468 0.750349
0.779081 1.063162 0.704468
0.779978 1.063162 0.705363
0.780983 1.063162 0.706232
0.780077 1.063162 0.704391
0.781598 1.063162 0.702449
0.792677 1.063162 0.700237
0.834215 1.063162 0.697630
0.934162 1.063162 0.698055
1.063162 1.063162 0.718283
0.013578 0.001221 0.395775
0.057396 0.001239 0.398090
0.234406 0.001291 0.398808
0.362429 0.001949 0.397362
0.512655 0.055810 0.387520
0.685371 0.247443 0.389927
0.874601 0.429955 0.455438
1.063162 0.611238 0.601326
1.063162 0.798154 0.783257
0.013185 0.013268 0.404239
0.059082 0.012621 0.403903
0.239292 0.013256 0.404524
0.371663 0.018090 0.402937
0.524772 0.102636 0.391403
0.700267 0.277481 0.395677
0.890842 0.447519 0.466571
1.063162 0.627739 0.616547
1.063162 0.814687 0.799788
0.013375 0.211121 0.404631
0.055557 0.209565 0.404349
0.244036 0.208391 0.402328
0.379743 0.214811 0.401157
0.533263 0.240693 0.389188
0.711811 0.325253 0.397602
0.904227 0.468026 0.475346
1.063162 0.643085 0.629575
1.063162 0.829329 0.814211
0.037091 0.387561 0.393922
0.094762 0.387946 0.393714
0.247924 0.387976 0.392014
0.388120 0.388120 0.388120
0.532234 0.383306 0.376069
0.712301 0.406581 0.389277
0.907992 0.497283 0.475436
1.063162 0.654560 0.634814
1.063162 0.837723 0.821579
0.217084 0.544645 0.345149
0.236295 0.545397 0.344276
0.285550 0.545869 0.342403
0.391915 0.537211 0.355365
0.523196 0.541085 0.348051
0.701544 0.534044 0.363049
0.899546 0.561626 0.458914
1.063162 0.670338 0.628428
1.063162 0.840237 0.819890
0.357168 0.700988 0.335003
0.361958 0.701849 0.334473
0.376114 0.702561 0.333542
0.418492 0.702863 0.331476
0.515232 0.698721 0.335719
0.663179 0.693322 0.351126
0.875916 0.682796 0.430865
1.063162 0.717863 0.606576
1.063162 0.844151 0.807609
0.492130 0.856081 0.414936
0.493942 0.856936 0.415275
0.498152 0.857731 0.415512
0.511560 0.858346 0.415404
0.553226 0.855384 0.414924
0.653368 0.850897 0.415949
0.805534 0.844175 0.436967
1.048633 0.829618 0.573953
1.063162 0.875582 0.782379
0.633204 1.007377 0.551273
0.634286 1.008220 0.552014
0.635916 1.009016 0.552723
0.620615 0.984355 0.533569
0.651136 1.007557 0.551669
0.693175 1.004521 0.549482
0.794311 0.999521 0.549789
0.946816 0.991283 0.572816
1.063162 0.973189 0.744700
0.777320 1.063162 0.703693
0.778208 1.063162 0.704544
0.779214 1.063162 0.705376
0.780769 1.063162 0.706172
0.782265 1.063162 0.704325
0.793271 1.063162 0.702223
0.834718 1.063162 0.699718
0.934654 1.063162 0.700187
1.063162 1.063162 0.723413
0.028504 0.003409 0.525215
0.056493 0.003414 0.528202
0.198177 0.003430 0.529726
0.346360 0.004062 0.529227
0.478952 0.009383 0.524864
0.662049 0.146002 0.508719
0.853967 0.394204 0.517194
1.049333 0.591125 0.608849
1.063162 0.782933 0.773369
0.027768 0.010738 0.536885
0.056433 0.010390 0.536951
0.199752 0.010499 0.538413
0.352420 0.012436 0.537692
0.489333 0.023784 0.533465
0.675796 0.182696 0.516170
0.869548 0.412594 0.526079
1.063162 0.607466 0.622161
1.063162 0.799189 0.789139
0.026861 0.086322 0.541559
0.052495 0.083987 0.541710
0.200576 0.081628 0.540265
0.357038 0.085617 0.539966
0.498601 0.110644 0.536995
0.686119 0.259268 0.520540
0.882213 0.434835 0.533326
1.063162 0.622743 0.633666
1.063162 0.813544 0.802888
0.039752 0.334263 0.537483
0.068062 0.333394 0.537664
0.200222 0.332176 0.536641
0.362406 0.331469 0.533501
0.506392 0.338156 0.531435
0.685452 0.366464 0.517392
0.885096 0.468355 0.534738
1.063162 0.634526 0.638518
1.063162 0.821664 0.809766
0.153335 0.514195 0.522106
0.186254 0.514770 0.522438
0.256176 0.515058 0.521938
0.368784 0.514846 0.519493
0.514829 0.514829 0.514829
0.676058 0.509849 0.502359
0.874601 0.540536 0.524248
1.063162 0.651299 0.632421
1.063162 0.822970 0.806647
0.341736 0.683332 0.474258
0.347042 0.684174 0.473952
0.362900 0.684882 0.473265
0.409459 0.685196 0.471431
0.508938 0.684721 0.467655
0.659025 0.679137 0.478023
0.854450 0.671672 0.498610
1.060948 0.706165 0.611816
1.063162 0.828947 0.794315
0.486205 0.846963 0.477754
0.488100 0.847857 0.477649
0.492571 0.848688 0.477425
0.506861 0.849323 0.476805
0.550448 0.849411 0.475175
0.651118 0.844497 0.479265
0.804051 0.837956 0.495276
1.030421 0.825661 0.583298
1.063162 0.866417 0.769132
0.630347 1.002984 0.567731
0.631435 1.003842 0.568218
0.633121 1.004663 0.568664
0.637318 1.005391 0.569003
0.650764 1.005891 0.569047
0.692704 1.002626 0.568487
0.793925 0.997451 0.569828
0.946714 0.989374 0.590909
1.063162 0.971758 0.734928
0.775329 1.063162 0.706165
0.776214 1.063162 0.706929
0.777221 1.063162 0.707677
0.778813 1.063162 0.708386
0.782737 1.063162 0.709004
0.793660 1.063162 0.707320
0.835013 1.063162 0.705243
0.934940 1.063162 0.705959
1.063162 1.063162 0.728631
0.033273 0.003913 0.670405
0.049323 0.003852 0.674066
0.130238 0.003739 0.676170
0.318248 0.003969 0.676426
0.463357 0.006212 0.673086
0.603591 0.026929 0.662353
0.822083 0.311678 0.636659
1.022580 0.552360 0.654696
1.063162 0.757910 0.769002
0.031449 0.007268 0.685070
0.047668 0.007072 0.685442
0.128719 0.006878 0.687484
0.321861 0.007323 0.687578
0.470998 0.011526 0.683771
0.615065 0.039598 0.673455
0.836734 0.333559 0.646076
1.037873 0.568823 0.665505
1.063162 0.773971 0.783287
0.028145 0.037276 0.691936
0.041825 0.036184 0.692410
0.124405 0.034782 0.691054
0.322439 0.035742 0.691257
0.476828 0.043971 0.688446
0.625659 0.083738 0.680951
0.848392 0.361522 0.654378
1.050655 0.584337 0.675286
1.063162 0.788113 0.795847
0.030989 0.227695 0.691129
0.044635 0.224306 0.691596
0.118504 0.219554 0.690549
0.324452 0.216449 0.687724
0.481450 0.227436 0.685924
0.634532 0.269037 0.681025
0.850040 0.406376 0.659163
1.055174 0.596814 0.681189
1.063162 0.795960 0.802385
0.085584 0.460448 0.679509
0.101865 0.460022 0.680090
0.165860 0.459256 0.679856
0.328081 0.458013 0.677845
0.487350 0.457405 0.673232
0.641510 0.465040 0.670091
0.838702 0.498048 0.654495
1.047816 0.617373 0.679756
1.063162 0.797421 0.800112
0.299201 0.649106 0.658633
0.306014 0.649781 0.659228
0.326759 0.650318 0.659443
0.384235 0.650457 0.658500
0.496193 0.649937 0.655154
0.649719 0.649719 0.649719
0.821243 0.644707 0.637252
1.028960 0.681485 0.666571
1.063162 0.804513 0.788418
0.471503 0.825716 0.611533
0.473509 0.826584 0.611507
0.478405 0.827394 0.611345
0.494155 0.828018 0.610738
0.541464 0.828135 0.608829
0.644384 0.827254 0.605020
0.799065 0.820844 0.616139
1.002324 0.813035 0.641264
1.063162 0.851382 0.764861
0.624406 0.992089 0.625044
0.625520 0.992971 0.625159
0.627282 0.993820 0.625227
0.631731 0.994596 0.625174
0.646043 0.995134 0.624740
0.689907 0.994975 0.623353
0.791467 0.989323 0.627398
0.944815 0.981675 0.644089
1.063162 0.967373 0.736327
0.772461 1.063162 0.721085
0.773351 1.063162 0.721640
0.774369 1.063162 0.722178
0.776013 1.063162 0.722676
0.780122 1.063162 0.723079
0.793320 1.063162 0.723202
0.834553 1.063162 0.722605
0.934491 1.063162 0.724233
1.063162 1.063162 0.745157
0.021712 0.001735 0.837601
0.028206 0.001651 0.842170
0.061223 0.001533 0.845230
0.244403 0.001432 0.845066
0.440214 0.001798 0.842456
0.590029 0.005743 0.831767
0.734273 0.062322 0.807731
0.986124 0.480315 0.768147
1.063162 0.717982 0.798782
0.018704 0.002280 0.856154
0.025219 0.002205 0.856831
0.056254 0.002043 0.859903
0.242236 0.001897 0.859442
0.446123 0.002398 0.856436
0.599168 0.008121 0.844593
0.746406 0.074241 0.820431
1.000771 0.497432 0.778461
1.063162 0.734083 0.810674
0.014778 0.007652 0.867238
0.019711 0.007298 0.868104
0.049618 0.006881 0.867091
0.235105 0.006519 0.866250
0.449053 0.008312 0.862742
0.606045 0.024913 0.849964
0.757964 0.103953 0.830870
1.012825 0.513744 0.788499
1.063162 0.748154 0.821591
0.010645 0.088290 0.860887
0.014182 0.086175 0.861686
0.036740 0.083272 0.860831
0.221862 0.079398 0.856162
0.447103 0.082777 0.854124
0.611102 0.105168 0.848108
0.768110 0.204420 0.835698
1.016334 0.527744 0.797567
1.063162 0.755597 0.828954
0.018693 0.378477 0.849928
0.023790 0.376718 0.850612
0.054308 0.373912 0.849791
0.217594 0.369833 0.846409
0.449691 0.367886 0.841488
0.615010 0.377466 0.837633
0.775841 0.413073 0.830338
1.007613 0.555538 0.802563
1.063162 0.756992 0.831026
0.162365 0.595466 0.826603
0.170924 0.595331 0.827421
0.204020 0.594999 0.827768
0.310869 0.594181 0.826829
0.456453 0.592743 0.823443
0.621070 0.592118 0.817144
0.781439 0.600584 0.812874
0.988120 0.637652 0.796208
1.063162 0.767593 0.826545
0.434554 0.788600 0.799637
0.436783 0.789317 0.800335
0.442701 0.789976 0.800874
0.462094 0.790431 0.800912
0.518231 0.790378 0.799441
0.632023 0.789518 0.795157
0.789098 0.789094 0.789094
0.964566 0.784240 0.777068
1.063162 0.824557 0.811309
0.610389 0.967514 0.753800
0.611538 0.968365 0.753939
0.613398 0.969189 0.754024
0.618228 0.969932 0.753949
0.633845 0.970466 0.753377
0.681125 0.970347 0.751411
0.784514 0.969062 0.747607
0.939131 0.961958 0.759144
1.063162 0.953842 0.786817
0.766638 1.063162 0.774255
0.767549 1.063162 0.774500
0.768589 1.063162 0.774715
0.770305 1.063162 0.774894
0.774653 1.063162 0.774953
0.788681 1.063162 0.774632
0.831794 1.063162 0.773420
0.931884 1.063162 0.777423
1.063162 1.063162 0.794229
0.003468 0.000099 1.051741
0.004118 0.000099 1.058509
0.008265 0.000099 1.063162
0.055651 0.000099 1.063162
0.389073 0.000001 1.057665
0.576935 0.000099 1.047393
0.726646 0.002152 1.013625
0.867875 0.132488 0.957909
1.063162 0.651878 0.900211
0.002187 0.000099 1.063162
0.002841 0.000099 1.063162
0.005879 0.000099 1.063162
0.045760 0.000001 1.063162
0.392090 0.000001 1.063162
0.585616 0.000099 1.063162
0.737279 0.002337 1.030121
0.880189 0.146529 0.971393
1.063162 0.668217 0.910777
0.001158 0.000147 1.063162
0.001494 0.000147 1.063162
0.003712 0.000099 1.063162
0.035451 0.000099 1.063162
0.391807 0.000099 1.063162
0.592057 0.000147 1.063162
0.745874 0.005165 1.039024
0.892164 0.171985 0.983657
1.063162 0.682277 0.921297
0.000359 0.002606 1.063162
0.000473 0.002331 1.063162
0.001257 0.002061 1.063162
0.023210 0.001735 1.063162
0.379450 0.001533 1.063162
0.589932 0.003575 1.063162
0.748864 0.046769 1.026691
0.903236 0.237673 0.992350
1.063162 0.688933 0.931634
0.000099 0.188549 1.048200
0.000147 0.184834 1.049372
0.000317 0.180093 1.049047
0.009203 0.171467 1.043024
0.356170 0.160419 1.028921
0.580682 0.170323 1.023147
0.751826 0.225263 1.012302
0.912240 0.388387 0.992737
1.063162 0.689946 0.941076
0.001342 0.528007 1.018322
0.001600 0.526915 1.019241
0.003600 0.525120 1.018782
0.047232 0.520621 1.013054
0.358767 0.515349 1.004540
0.583271 0.513579 0.996636
0.754298 0.523483 0.990207
0.918151 0.558841 0.980043
1.063162 0.706312 0.946091
0.305514 0.736323 0.974398
0.308540 0.736372 0.975319
0.320459 0.736330 0.976007
0.359689 0.736011 0.975975
0.450829 0.735039 0.974022
0.592676 0.733331 0.968898
0.760129 0.732640 0.960801
0.921956 0.741685 0.955408
1.063162 0.780659 0.938138
0.576736 0.928519 0.940837
0.577883 0.929240 0.941550
0.579924 0.929927 0.942206
0.585632 0.930526 0.942662
0.604454 0.930890 0.942485
0.659608 0.930623 0.940470
0.772749 0.929415 0.935318
0.928799 0.928799 0.928799
1.063162 0.924179 0.917564
0.753373 1.063162 0.897136
0.754284 1.063162 0.897373
0.755359 1.063162 0.897584
0.757163 1.063162 0.897732
0.761866 1.063162 0.897723
0.777101 1.063162 0.897174
0.823362 1.063162 0.895150
0.924888 1.063162 0.891404
1.063162 1.063162 0.902820
0.000001 0.000001 1.063162
0.000001 0.000001 1.063162
0.000001 0.000001 1.063162
0.000099 0.000001 1.063162
0.029657 0.000001 1.063162
0.558709 0.000001 1.063162
0.740986 0.000001 1.063162
0.876559 0.000099 1.063162
0.999342 0.277535 1.063162
0.000001 0.000001 1.063162
0.000001 0.000001 1.063162
0.000001 0.000001 1.063162
0.000001 0.000001 1.063162
0.018424 0.000001 1.063162
0.568142 0.000001 1.063162
0.754358 0.000001 1.063162
0.889531 0.000001 1.063162
1.011389 0.301363 1.063162
0.000001 0.000001 1.063162
0.000001 0.000001 1.063162
0.000001 0.000001 1.063162
0.000001 0.000001 1.063162
0.010016 0.000001 1.063162
0.575675 0.000001 1.063162
0.766276 0.000001 1.063162
0.900842 0.000099 1.063162
1.023262 0.329598 1.063162
0.000001 0.000001 1.063162
0.000001 0.000001 1.063162
0.000001 0.000001 1.063162
0.000001 0.000001 1.063162
0.004070 0.000001 1.063162
0.575389 0.000001 1.063162
0.771559 0.000001 1.063162
0.905342 0.000473 1.063162
1.034631 0.369934 1.063162
0.000001 0.000001 1.063162
0.000001 0.000001 1.063162
0.000001 0.000001 1.063162
0.000001 0.000001 1.063162
0.000552 0.000001 1.063162
0.544351 0.000001 1.063162
0.750816 0.000099 1.063162
0.895445 0.088343 1.063162
1.044671 0.438814 1.063162
0.000001 0.400616 1.063162
0.000001 0.396862 1.063162
0.000001 0.392088 1.063162
0.000001 0.383623 1.063162
0.000001 0.360465 1.063162
0.492246 0.328084 1.063162
0.721126 0.350088 1.063162
0.894918 0.422801 1.063162
1.051928 0.552849 1.063162
0.000001 0.689002 1.063162
0.000001 0.688459 1.063162
0.000001 0.687400 1.063162
0.000001 0.684330 1.063162
0.016562 0.673474 1.063162
0.499675 0.664964 1.063162
0.723273 0.663173 1.063162
0.895462 0.673448 1.063162
1.055501 0.708325 1.063162
0.464764 0.879572 1.063162
0.465188 0.879742 1.063162
0.467544 0.879866 1.063162
0.477459 0.879879 1.063162
0.511327 0.879535 1.063162
0.595926 0.878372 1.063162
0.734834 0.876382 1.063162
0.900779 0.875619 1.063162
1.057327 0.884696 1.063162
0.722819 1.063162 1.063162
0.723693 1.063162 1.063162
0.724770 1.063162 1.063162
0.726749 1.063162 1.063162
0.732256 1.063162 1.063162
0.750405 1.063162 1.063162
0.803858 1.063162 1.063162
0.914113 1.063162 1.063162
1.063162 1.063162 1.063162
